X: 8
T: Pollonesse #8
M: 3/4
L: 1/16
K: Am
Q:120
d2d2 A4 f4|e2d2 c4 d4|e2f2 g2f2 e4|e2c2 A8:|
f2e2 f4a4| g2f2 e4g4| f2e2 f2d2 e2c2| d4 d8:|

